exported-svg/more-horizontal.svg

<svg height="24" viewBox="0 0 24 24" width="24" xmlns="http://www.w3.org/2000/svg"><path d="m4.5 14c-.82842712 0-1.5-.6715729-1.5-1.5s.67157288-1.5 1.5-1.5 1.5.6715729 1.5 1.5-.67157288 1.5-1.5 1.5zm8 0c-.8284271 0-1.5-.6715729-1.5-1.5s.6715729-1.5 1.5-1.5 1.5.6715729 1.5 1.5-.6715729 1.5-1.5 1.5zm8 0c-.8284271 0-1.5-.6715729-1.5-1.5s.6715729-1.5 1.5-1.5 1.5.6715729 1.5 1.5-.6715729 1.5-1.5 1.5z" fill-rule="evenodd"/></svg>

<?xml version="1.0" encoding="UTF-8"?>
<svg width="24px" height="24px" viewBox="0 0 24 24" version="1.1" xmlns="http://www.w3.org/2000/svg" xmlns:xlink="http://www.w3.org/1999/xlink">
    <!-- Generator: Sketch 55.2 (78181) - https://sketchapp.com -->
    <title>more-horizontal</title>
    <desc>Created with Sketch.</desc>
    <g id="more-horizontal" stroke="none" stroke-width="1" fill="none" fill-rule="evenodd">
        <path d="M4.5,14 C3.67157288,14 3,13.3284271 3,12.5 C3,11.6715729 3.67157288,11 4.5,11 C5.32842712,11 6,11.6715729 6,12.5 C6,13.3284271 5.32842712,14 4.5,14 Z M12.5,14 C11.6715729,14 11,13.3284271 11,12.5 C11,11.6715729 11.6715729,11 12.5,11 C13.3284271,11 14,11.6715729 14,12.5 C14,13.3284271 13.3284271,14 12.5,14 Z M20.5,14 C19.6715729,14 19,13.3284271 19,12.5 C19,11.6715729 19.6715729,11 20.5,11 C21.3284271,11 22,11.6715729 22,12.5 C22,13.3284271 21.3284271,14 20.5,14 Z" id="Combined-Shape" fill="#000000"></path>
    </g>
</svg>
